src/assets/icons/sakura/044-lights.svg

<?xml version="1.0" standalone="no"?><!DOCTYPE svg PUBLIC "-//W3C//DTD SVG 1.1//EN" "http://www.w3.org/Graphics/SVG/1.1/DTD/svg11.dtd"><svg t="1624436455863" class="icon" viewBox="0 0 1024 1024" version="1.1" xmlns="http://www.w3.org/2000/svg" p-id="22097" xmlns:xlink="http://www.w3.org/1999/xlink" width="200" height="200"><defs><style type="text/css"></style></defs><path d="M512 0l-41.207243 31.960338L512 61.810865c17.06804 0 30.905433 13.837392 30.905433 30.905433s-13.837392 30.905433-30.905433 30.905432l-41.067139 34.010399L512 185.432596c25.972926 0 49.450753-10.594382 66.281851-27.800467A92.61328 92.61328 0 0 0 604.716298 92.716298c0-51.206181-41.510117-92.716298-92.716298-92.716298z" fill="#E8B5B1" p-id="22098"></path><path d="M512 123.62173c-17.06804 0-30.905433-13.837392-30.905433-30.905432s13.837392-30.905433 30.905433-30.905433c-17.06804-17.06804-17.06804-44.742825 0-61.810865-51.206181 0-92.716298 41.510117-92.716298 92.716298s41.510117 92.716298 92.716298 92.716298c-17.06804-17.06804-17.06804-44.742825 0-61.810866z" fill="#CE857A" p-id="22099"></path><path d="M779.845022 467.700153L627.380282 315.235412h-224.579477v646.953723h377.046277V467.702213z" fill="#FFDBE0" p-id="22100"></path><path d="M625.77938 316.836314l1.600902-1.600902-115.380282-115.380281-267.847082 267.847082v494.486922h230.760563V681.058897a515.088483 515.088483 0 0 1 150.865899-364.222583z" fill="#FFB5C0" p-id="22101"></path><path d="M474.913481 684.040241l-79.260073 46.358149L474.913481 776.756539h296.692153v-92.716298z" fill="#E8B5B1" p-id="22102"></path><path d="M474.913481 684.040241h-222.519115v92.716298h222.519115c-25.60206-25.60206-25.60206-67.114237 0-92.716298zM718.036217 467.702213h123.621731v494.486922h-123.621731z" fill="#D6948C" p-id="22103"></path><path d="M182.342052 467.702213h123.621731v494.486922h-123.621731z" fill="#CE857A" p-id="22104"></path><path d="M887.818302 404.618044c-117.504515-37.929207-254.58041-117.700249-300.555332-230.492716a84.674704 84.674704 0 0 0-8.981119-16.493199h-107.35105v174.018189l41.207243 29.906157c70.056435 86.621746 193.853296 156.200177 326.567405 198.660121 52.442398 16.775469 105.968547-22.830873 105.968547-77.889932 0.00206-35.526825-23.045151-66.794881-56.855694-77.70862z" fill="#FF8E9E" p-id="22105"></path><path d="M513.374262 123.62173c-0.471823 0-0.943646 0.039147-1.41753 0.047389h-0.026784c-24.646052 0.412072-49.419847 10.994093-65.754399 33.960949-3.80961 5.356942-7.163879 11.727581-9.945368 18.405216-46.349907 111.21835-183.512338 192.215308-300.042302 230.606036-33.767276 11.125956-56.863936 42.26627-56.863935 77.817819 0 55.242431 53.812539 94.935308 106.362076 77.896113 132.611091-42.993577 256.028845-113.725811 326.454085-200.798777v-46.885602c0-58.899573 24.133022-114.844588 65.636957-156.636974 0.16895-0.17101 0.337899-0.2287 0.506849-0.40177C562.950696 135.571831 538.67963 123.62173 513.374262 123.62173z" fill="#EA5B70" p-id="22106"></path><path d="M862.261569 900.37827h-387.348088l-67.991952 61.810865 67.991952 61.810865h387.348088c34.138141 0 61.810865-27.674785 61.810866-61.810865 0-34.138141-27.672724-61.810865-61.810866-61.810865z" fill="#E8B5B1" p-id="22107"></path><path d="M474.913481 900.37827h-313.17505c-34.138141 0-61.810865 27.672724-61.810866 61.810865 0 34.13608 27.672724 61.810865 61.810866 61.810865h313.17505c-34.138141-34.13608-34.138141-89.48565 0-123.62173z" fill="#D6948C" p-id="22108"></path><path d="M390.422149 561.924636c-28.338221 0-51.309199 18.293956-51.309199 40.861102s22.970978 40.861103 51.309199 40.861103c28.336161 0 51.309199-18.293956 51.309199-40.861103s-22.973038-40.861103-51.309199-40.861102zM633.577851 561.924636c-28.336161 0-51.309199 18.293956-51.309199 40.861102s22.970978 40.861103 51.309199 40.861103 51.309199-18.293956 51.309199-40.861103c0.00206-22.567147-22.970978-40.861103-51.309199-40.861102z" fill="#FF8E9E" p-id="22109"></path><path d="M403.936064 516.244346a15.450656 15.450656 0 0 0-15.452716 15.452716v24.724346c0 8.53608 6.916636 15.452716 15.452716 15.452717s15.452716-6.916636 15.452717-15.452717v-24.724346a15.452716 15.452716 0 0 0-15.452717-15.452716zM620.061875 516.244346a15.450656 15.450656 0 0 0-15.452716 15.452716v24.724346c0 8.53608 6.916636 15.452716 15.452716 15.452717s15.452716-6.916636 15.452717-15.452717v-24.724346c0-8.53608-6.916636-15.452716-15.452717-15.452716zM556.073207 544.036571a15.448596 15.448596 0 0 0-21.800692 1.499944c-11.793513 13.532459-32.759759 13.520097-44.54297 0a15.448596 15.448596 0 0 0-21.800692-1.499944 15.452716 15.452716 0 0 0-1.499944 21.800693c24.108298 27.668604 67.054487 27.64594 91.142182 0a15.448596 15.448596 0 0 0-1.497884-21.800693z" fill="#313D40" p-id="22110"></path></svg>

<svg class="icon" viewBox="0 0 1024 1024" xmlns="http://www.w3.org/2000/svg" width="200" height="200"><path d="m512 0-41.207 31.96L512 61.81c17.068 0 30.905 13.838 30.905 30.906S529.068 123.622 512 123.622l-41.067 34.01 41.067 27.8c25.973 0 49.45-10.594 66.282-27.8a92.613 92.613 0 0 0 26.434-64.916C604.716 41.51 563.206 0 512 0z" fill="#E8B5B1"/><path d="M512 123.622c-17.068 0-30.905-13.838-30.905-30.906S494.932 61.811 512 61.811C494.932 44.743 494.932 17.068 512 0c-51.206 0-92.716 41.51-92.716 92.716s41.51 92.717 92.716 92.717c-17.068-17.068-17.068-44.743 0-61.811z" fill="#CE857A"/><path d="M779.845 467.7 627.38 315.235H402.8V962.19h377.047V467.702z" fill="#FFDBE0"/><path d="m625.78 316.836 1.6-1.6L512 199.855 244.153 467.701V962.19h230.76V681.06A515.088 515.088 0 0 1 625.78 316.836z" fill="#FFB5C0"/><path d="m474.913 684.04-79.26 46.358 79.26 46.359h296.693V684.04z" fill="#E8B5B1"/><path d="M474.913 684.04H252.394v92.717h222.52c-25.603-25.603-25.603-67.115 0-92.717zm243.123-216.338h123.622V962.19H718.036z" fill="#D6948C"/><path d="M182.342 467.702h123.622V962.19H182.342z" fill="#CE857A"/><path d="M887.818 404.618c-117.504-37.93-254.58-117.7-300.555-230.493a84.675 84.675 0 0 0-8.981-16.493H470.93V331.65l41.207 29.906c70.056 86.622 193.853 156.2 326.567 198.66 52.443 16.776 105.969-22.83 105.969-77.89.002-35.526-23.045-66.794-56.856-77.708z" fill="#FF8E9E"/><path d="M513.374 123.622c-.472 0-.943.039-1.417.047h-.027c-24.646.412-49.42 10.994-65.754 33.961-3.81 5.357-7.164 11.728-9.946 18.405-46.35 111.219-183.512 192.216-300.042 230.606-33.767 11.126-56.864 42.267-56.864 77.818 0 55.243 53.812 94.935 106.362 77.896C318.297 519.362 441.715 448.63 512.14 361.556v-46.885c0-58.9 24.133-114.845 65.637-156.637.169-.171.338-.229.507-.402-15.333-22.06-39.604-34.01-64.91-34.01z" fill="#EA5B70"/><path d="M862.262 900.378H474.913l-67.991 61.811L474.913 1024h387.349c34.138 0 61.81-27.675 61.81-61.81 0-34.139-27.672-61.812-61.81-61.812z" fill="#E8B5B1"/><path d="M474.913 900.378H161.738c-34.138 0-61.81 27.673-61.81 61.811 0 34.136 27.672 61.811 61.81 61.811h313.175c-34.138-34.136-34.138-89.486 0-123.622z" fill="#D6948C"/><path d="M390.422 561.925c-28.338 0-51.31 18.294-51.31 40.86s22.972 40.862 51.31 40.862c28.336 0 51.31-18.294 51.31-40.861s-22.974-40.861-51.31-40.861zm243.156 0c-28.336 0-51.31 18.294-51.31 40.86s22.972 40.862 51.31 40.862 51.31-18.294 51.31-40.861c.001-22.567-22.972-40.861-51.31-40.861z" fill="#FF8E9E"/><path d="M403.936 516.244a15.45 15.45 0 0 0-15.453 15.453v24.724c0 8.536 6.917 15.453 15.453 15.453s15.453-6.917 15.453-15.453v-24.724a15.453 15.453 0 0 0-15.453-15.453zm216.126 0a15.45 15.45 0 0 0-15.453 15.453v24.724c0 8.536 6.917 15.453 15.453 15.453s15.453-6.917 15.453-15.453v-24.724c0-8.536-6.917-15.453-15.453-15.453zm-63.989 27.793a15.449 15.449 0 0 0-21.8 1.5c-11.794 13.532-32.76 13.52-44.543 0a15.449 15.449 0 0 0-21.801-1.5 15.453 15.453 0 0 0-1.5 21.8c24.108 27.669 67.054 27.646 91.142 0a15.449 15.449 0 0 0-1.498-21.8z" fill="#313D40"/></svg>
